X: 172
T:Valse ? Cadet
R:Valse
A:Morvan
O:France
M:3/4
L:1/4
Q:1/4=180
K:Bbmaj
BFd|B3|BFd|c2 c/2d/2|edc|BAG|FGA| [1,3 G2 F:| [2 B3:| [42 B2 A/2B/2|
|:c c/2e/2 d/2c/2|d d/2f/2 e/2d/2|c c/2e/2 d/2c/2|1 dB A/2B/2:|2B3|:
d2e|fgf|c2d|efe|B2c|ded| [1 c2B|c3:| [2 c2A|B3|
<end>
<start>
